images/wwd-design.svg

<svg width="65" height="66" viewBox="0 0 65 66" fill="none" xmlns="http://www.w3.org/2000/svg">
<rect y="0.25" width="5" height="5" fill="white" fill-opacity="0.7"/>
<rect x="60" y="0.25" width="5" height="5" fill="white" fill-opacity="0.7"/>
<rect x="5" y="28.375" width="5" height="5" transform="rotate(90 5 28.375)" fill="#7ACC00"/>
<rect x="65" y="28.375" width="5" height="5" transform="rotate(90 65 28.375)" fill="white" fill-opacity="0.7"/>
<rect x="35" y="5.25" width="5" height="5" transform="rotate(-180 35 5.25)" fill="white" fill-opacity="0.7"/>
<rect x="35" y="65.375" width="5" height="5" transform="rotate(-180 35 65.375)" fill="#7ACC00"/>
<rect x="5" y="60.375" width="5" height="5" transform="rotate(90 5 60.375)" fill="#7ACC00"/>
<rect x="65" y="60.375" width="5" height="5" transform="rotate(90 65 60.375)" fill="white" fill-opacity="0.7"/>
<path fill-rule="evenodd" clip-rule="evenodd" d="M8.2643 2.0625V3.0625H9.29124V2.0625H8.2643ZM11.6532 2.0625V3.0625H12.6801V2.0625H11.6532ZM15.0421 2.0625V3.0625H16.069V2.0625H15.0421ZM18.431 2.0625V3.0625H19.4579V2.0625H18.431ZM21.8199 2.0625V3.0625H22.8468V2.0625H21.8199ZM25.2088 2.0625V3.0625H26.2357V2.0625H25.2088ZM38.7643 2.0625V3.0625H39.7912V2.0625H38.7643ZM42.1532 2.0625V3.0625H43.1801V2.0625H42.1532ZM45.5421 2.0625V3.0625H46.569V2.0625H45.5421ZM48.931 2.0625V3.0625H49.9579V2.0625H48.931ZM52.3199 2.0625V3.0625H53.3468V2.0625H52.3199ZM55.7088 2.0625V3.0625H56.7357V2.0625H55.7088ZM63 8.00926H62V8.98414H63V8.00926ZM63 11.2264H62V12.2013H63V11.2264ZM63 14.4435H62V15.4184H63V14.4435ZM63 17.6606H62V18.6355H63V17.6606ZM63 20.8777H62V21.8526H63V20.8777ZM63 24.0948H62V25.0697H63V24.0948ZM63 36.9632H62V37.9381H63V36.9632ZM63 40.1803H62V41.1552H63V40.1803ZM63 43.3974H62V44.3723H63V43.3974ZM63 46.6145H62V47.5894H63V46.6145ZM63 49.8316H62V50.8065H63V49.8316ZM63 53.0487H62V54.0236H63V53.0487ZM63 56.2659H62V57.2407H63V56.2659ZM56.7357 63.1875V62.1875H55.7088V63.1875H56.7357ZM53.3468 63.1875V62.1875H52.3199V63.1875H53.3468ZM49.9579 63.1875V62.1875H48.931V63.1875H49.9579ZM46.569 63.1875V62.1875H45.5421V63.1875H46.569ZM43.1801 63.1875V62.1875H42.1532V63.1875H43.1801ZM39.7912 63.1875V62.1875H38.7643V63.1875H39.7912ZM26.2357 63.1875V62.1875H25.2088V63.1875H26.2357ZM22.8468 63.1875V62.1875H21.8199V63.1875H22.8468ZM19.4579 63.1875V62.1875H18.431V63.1875H19.4579ZM16.069 63.1875V62.1875H15.0421V63.1875H16.069ZM12.6801 63.1875V62.1875H11.6532V63.1875H12.6801ZM9.29125 63.1875V62.1875H8.26431V63.1875H9.29125ZM2 57.2407H3V56.2659H2V57.2407ZM2 54.0236H3V53.0488H2V54.0236ZM2 50.8065H3V49.8316H2V50.8065ZM2 47.5894H3V46.6145H2V47.5894ZM2 44.3723H3V43.3974H2V44.3723ZM2 41.1552H3V40.1803H2V41.1552ZM2 37.9381H3V36.9632H2V37.9381ZM2 25.0697H3V24.0948H2V25.0697ZM2 21.8526H3V20.8777H2V21.8526ZM2 18.6355H3V17.6606H2V18.6355ZM2 15.4184H3V14.4435H2V15.4184ZM2 12.2013H3V11.2264H2V12.2013ZM2 8.98415H3V8.00927H2V8.98415Z" fill="white"/>
<path fill-rule="evenodd" clip-rule="evenodd" d="M8.34133 30.1875V31.1875H9.38089V30.1875H8.34133ZM11.7719 30.1875V31.1875H12.8114V30.1875H11.7719ZM15.2024 30.1875V31.1875H16.242V30.1875H15.2024ZM18.633 30.1875V31.1875H19.6726V30.1875H18.633ZM22.0636 30.1875V31.1875H23.1031V30.1875H22.0636ZM25.4941 30.1875V31.1875H26.5337V30.1875H25.4941ZM32.875 36.2875H31.875V37.2875H32.875V36.2875ZM32.875 39.5875H31.875V40.5875H32.875V39.5875ZM32.875 42.8875H31.875V43.8875H32.875V42.8875ZM32.875 46.1875H31.875V47.1875H32.875V46.1875ZM32.875 49.4875H31.875V50.4875H32.875V49.4875ZM32.875 52.7875H31.875V53.7875H32.875V52.7875ZM32.875 56.0875H31.875V57.0875H32.875V56.0875ZM26.5337 63.1875V62.1875H25.4941V63.1875H26.5337ZM23.1031 63.1875V62.1875H22.0636V63.1875H23.1031ZM19.6726 63.1875V62.1875H18.633V63.1875H19.6726ZM16.242 63.1875V62.1875H15.2024V63.1875H16.242ZM12.8114 63.1875V62.1875H11.7719V63.1875H12.8114ZM9.38089 63.1875V62.1875H8.34133V63.1875H9.38089ZM2 57.0875H3V56.0875H2V57.0875ZM2 53.7875H3V52.7875H2V53.7875ZM2 50.4875H3V49.4875H2V50.4875ZM2 47.1875H3V46.1875H2V47.1875ZM2 43.8875H3V42.8875H2V43.8875ZM2 40.5875H3V39.5875H2V40.5875ZM2 37.2875H3V36.2875H2V37.2875Z" fill="white"/>
<rect x="30.0312" y="28.0234" width="4.97656" height="4.97656" fill="#7ACC00"/>
<path d="M44.7885 19.5316C44.8016 19.2558 44.5887 19.0215 44.3128 19.0084L39.8179 18.7943C39.5421 18.7812 39.3079 18.9942 39.2947 19.27C39.2816 19.5458 39.4945 19.7801 39.7704 19.7932L43.7658 19.9835L43.5756 23.9789C43.5625 24.2548 43.7754 24.489 44.0512 24.5022C44.3271 24.5153 44.5613 24.3023 44.5745 24.0265L44.7885 19.5316ZM36.3754 27.3778L44.6254 19.8778L43.9527 19.1378L35.7027 26.6378L36.3754 27.3778Z" fill="white"/>
<path d="M20.597 41.8872C20.597 42.1634 20.8209 42.3872 21.097 42.3872L25.597 42.3872C25.8732 42.3872 26.097 42.1634 26.097 41.8872C26.097 41.6111 25.8732 41.3872 25.597 41.3872L21.597 41.3872L21.597 37.3872C21.597 37.1111 21.3732 36.8872 21.097 36.8872C20.8209 36.8872 20.597 37.1111 20.597 37.3872L20.597 41.8872ZM28.6274 33.6497L20.7435 41.5337L21.4506 42.2408L29.3345 34.3568L28.6274 33.6497Z" fill="white"/>
</svg>

<?xml version="1.0" encoding="utf-8"?>
<!-- Generator: Adobe Illustrator 23.0.1, SVG Export Plug-In . SVG Version: 6.00 Build 0)  -->
<svg version="1.1" id="Layer_1" xmlns="http://www.w3.org/2000/svg" xmlns:xlink="http://www.w3.org/1999/xlink" x="0px" y="0px"
	 viewBox="0 0 65 66" style="enable-background:new 0 0 65 66;" xml:space="preserve">
<style type="text/css">
	.st0{fill:#FFFFFF;fill-opacity:0.7;}
	.st1{fill:#93CB40;}
	.st2{fill-rule:evenodd;clip-rule:evenodd;fill:#FFFFFF;}
	.st3{fill:#FFFFFF;}
</style>
<rect y="0.3" class="st0" width="5" height="5"/>
<rect x="60" y="0.3" class="st0" width="5" height="5"/>
<rect y="28.4" class="st1" width="5" height="5"/>
<rect x="60" y="28.4" class="st0" width="5" height="5"/>
<rect x="30" y="0.3" class="st0" width="5" height="5"/>
<rect x="30" y="60.4" class="st1" width="5" height="5"/>
<rect y="60.4" class="st1" width="5" height="5"/>
<rect x="60" y="60.4" class="st0" width="5" height="5"/>
<path class="st2" d="M8.3,2.1v1h1v-1H8.3z M11.7,2.1v1h1v-1H11.7z M15,2.1v1h1v-1H15z M18.4,2.1v1h1v-1H18.4z M21.8,2.1v1h1v-1H21.8
	z M25.2,2.1v1h1v-1H25.2z M38.8,2.1v1h1v-1H38.8z M42.2,2.1v1h1v-1H42.2z M45.5,2.1v1h1v-1H45.5z M48.9,2.1v1h1v-1H48.9z M52.3,2.1
	v1h1v-1H52.3z M55.7,2.1v1h1v-1H55.7z M63,8h-1v1h1V8z M63,11.2h-1v1h1V11.2z M63,14.4h-1v1h1V14.4z M63,17.7h-1v1h1V17.7z M63,20.9
	h-1v1h1V20.9z M63,24.1h-1v1h1V24.1z M63,37h-1v1h1V37z M63,40.2h-1v1h1V40.2z M63,43.4h-1v1h1V43.4z M63,46.6h-1v1h1V46.6z
	 M63,49.8h-1v1h1V49.8z M63,53h-1v1h1V53z M63,56.3h-1v1h1V56.3z M56.7,63.2v-1h-1v1H56.7z M53.3,63.2v-1h-1v1H53.3z M50,63.2v-1h-1
	v1H50z M46.6,63.2v-1h-1v1H46.6z M43.2,63.2v-1h-1v1H43.2z M39.8,63.2v-1h-1v1H39.8z M26.2,63.2v-1h-1v1H26.2z M22.8,63.2v-1h-1v1
	H22.8z M19.5,63.2v-1h-1v1H19.5z M16.1,63.2v-1h-1v1H16.1z M12.7,63.2v-1h-1v1H12.7z M9.3,63.2v-1h-1v1H9.3z M2,57.2h1v-1H2V57.2z
	 M2,54h1v-1H2V54z M2,50.8h1v-1H2V50.8z M2,47.6h1v-1H2V47.6z M2,44.4h1v-1H2V44.4z M2,41.2h1v-1H2V41.2z M2,37.9h1v-1H2V37.9z
	 M2,25.1h1v-1H2V25.1z M2,21.9h1v-1H2V21.9z M2,18.6h1v-1H2V18.6z M2,15.4h1v-1H2V15.4z M2,12.2h1v-1H2V12.2z M2,9h1V8H2V9z"/>
<path class="st2" d="M8.3,30.2v1h1v-1H8.3z M11.8,30.2v1h1v-1H11.8z M15.2,30.2v1h1v-1H15.2z M18.6,30.2v1h1v-1H18.6z M22.1,30.2v1
	h1v-1H22.1z M25.5,30.2v1h1v-1H25.5z M32.9,36.3h-1v1h1V36.3z M32.9,39.6h-1v1h1V39.6z M32.9,42.9h-1v1h1V42.9z M32.9,46.2h-1v1h1
	V46.2z M32.9,49.5h-1v1h1V49.5z M32.9,52.8h-1v1h1V52.8z M32.9,56.1h-1v1h1V56.1z M26.5,63.2v-1h-1v1H26.5z M23.1,63.2v-1h-1v1H23.1
	z M19.7,63.2v-1h-1v1H19.7z M16.2,63.2v-1h-1v1H16.2z M12.8,63.2v-1h-1v1H12.8z M9.4,63.2v-1h-1v1H9.4z M2,57.1h1v-1H2V57.1z
	 M2,53.8h1v-1H2V53.8z M2,50.5h1v-1H2V50.5z M2,47.2h1v-1H2V47.2z M2,43.9h1v-1H2V43.9z M2,40.6h1v-1H2V40.6z M2,37.3h1v-1H2V37.3z"
	/>
<rect x="30" y="28" class="st1" width="5" height="5"/>
<path class="st3" d="M44.8,19.5c0-0.3-0.2-0.5-0.5-0.5l-4.5-0.2c-0.3,0-0.5,0.2-0.5,0.5c0,0.3,0.2,0.5,0.5,0.5l4,0.2l-0.2,4
	c0,0.3,0.2,0.5,0.5,0.5c0.3,0,0.5-0.2,0.5-0.5L44.8,19.5z M36.4,27.4l8.3-7.5L44,19.1l-8.3,7.5L36.4,27.4z"/>
<path class="st3" d="M20.6,41.9c0,0.3,0.2,0.5,0.5,0.5h4.5c0.3,0,0.5-0.2,0.5-0.5c0-0.3-0.2-0.5-0.5-0.5h-4v-4
	c0-0.3-0.2-0.5-0.5-0.5c-0.3,0-0.5,0.2-0.5,0.5V41.9z M28.6,33.6l-7.9,7.9l0.7,0.7l7.9-7.9L28.6,33.6z"/>
</svg>
